X: 33188
T: Professor, The
R: barndance
M: 4/4
K: Dmajor
FG|:(3ABA FA d2A2|(3ded cd b4|bafd B2c2|defg a4|
(3ABA FA d2A2|(3ded cd b4|bafd B2c2|(3efe d2 d4:|
|:f3ga4|bagf e2B2|e^def gfga|ba (3gfe d2A2|
f3ga4|bagf e2B2|e^def gfga|1 ba (3gfe d2A2:|2 ba (3gfe d2||

